X:707
%%etbk:tnset id:442,pos:2,rep:3x,ant:
%%etbk:wsite https://thesession.org/tunes/2816
%%etbk:pldat 2016-08-04T18:54,2016-07-22T15:48,2016-04-02T15:09,2016-03-22T16:28,2016-02-10T17:27,2016-01-12T17:32,2016-01-02T13:37,2015-12-28T17:57,2015-12-23T17:02,2015-12-21T19:28,2015-12-16T17:18,2015-08-19T17:16,2015-08-15T14:01,2015-08-13T18:40,2015-08-10T18:56,2015-08-09T15:15,2015-06-03T18:30,2015-06-01T17:26,2015-05-05T17:36
T: Micho Russell's
Z: Piano Box Version by Martin Fleischmann
H: Created 2015-04-29 /  Last Modified 2016-07-22
R: reel
M: 4/4
L: 1/8
K: Gmaj
|: !1!D!3!GGG !3!F!1!G!2!A!4!c | !3!B!1!GGG !2!ABcA | !5!d2 cA !3!BG G2 | !3!(3Bcd cA !3!BG!4!AF |
DGGG FGAc | BGGG ABcA | d2 cA BG G2 | (3Bcd cA G3 z :|
|: !4!g3 e !3!fdde | !3!fdgd fd d2 | !4!g3 e fd!1!d!2!c | !1!defd !4!g3 z |
!4!g2 ag !3!fd!1!d!4!c | !3!B2 B!1!G !2!ABcA | !5!d2 cA BG G2 | (3Bcd cA G3 z :|
"version"DGG2 FAA2|BGG2 ABcA|d2cA BGG2|(3Bcd cA GAGF|
DGG2 FAA2|BGG2 ABcA|d2cA BGG2|1(3Bcd cA G3F:|2(3Bcd cA g4||
~g2ge fdde|edgd fdd2|gage fddB|defd g2 (3def|
gagf d2dc|BGG2 ABcA|d2cA BGG2|1(3Bcd cA g4:|2(3Bcd cA G3F||


